;FLAVOR:Marlin
;TIME:2039
;Filament used: 1.80421m
;Layer height: 0.2
;MINX:88.75
;MINY:68.75
;MINZ:0.2
;MAXX:146.25
;MAXY:166.25
;MAXZ:3
;Generated with Cura_SteamEngine 4.8.0
M140 S60
M105
M190 S60
M104 S200
M105
M109 S200
M82 ;absolute extrusion mode
; Ender 3 Custom Start G-code
G92 E0 ; Reset Extruder
G28 ; Home all axes
G1 Z2.0 F3000 ; Move Z Axis up little to prevent scratching of Heat Bed
G1 X0.1 Y20 Z0.3 F5000.0 ; Move to start position
G1 X0.1 Y200.0 Z0.3 F1500.0 E15 ; Draw the first line
G1 X0.4 Y200.0 Z0.3 F5000.0 ; Move to side a little
G1 X0.4 Y20 Z0.3 F1500.0 E30 ; Draw the second line
G92 E0 ; Reset Extruder
G1 Z2.0 F3000 ; Move Z Axis up little to prevent scratching of Heat Bed
G1 X5 Y20 Z0.3 F5000.0 ; Move over to prevent blob squish
G92 E0
G92 E0
G1 F2700 E-5
;LAYER_COUNT:15
;LAYER:0
M107
G0 F6000 X91.316 Y72.708 Z0.2
;TYPE:SKIRT
G1 F2700 E0
G1 F1200 X91.948 Y72.014 E0.03122
G1 X92.636 Y71.377 E0.0624
G1 X93.376 Y70.801 E0.09359
G1 X94.162 Y70.289 E0.12479
G1 X94.989 Y69.847 E0.15598
G1 X95.851 Y69.477 E0.18718
G1 X96.741 Y69.181 E0.21838
G1 X97.653 Y68.963 E0.24957
G1 X98.58 Y68.822 E0.28075
G1 X99.451 Y68.763 E0.30979
G1 X99.772 Y68.754 E0.32047
G1 X100.08 Y68.75 E0.33071
G1 X134.543 Y68.75 E1.47696
G1 X135.399 Y68.761 E1.50543
G1 X136.335 Y68.815 E1.53661
G1 X137.263 Y68.947 E1.56779
G1 X138.177 Y69.159 E1.599
G1 X139.069 Y69.448 E1.63018
G1 X139.934 Y69.811 E1.66138
G1 X140.764 Y70.247 E1.69257
G1 X141.555 Y70.752 E1.72378
G1 X142.299 Y71.323 E1.75497
G1 X142.992 Y71.955 E1.78617
G1 X143.629 Y72.643 E1.81735
G1 X144.204 Y73.384 E1.84855
G1 X144.715 Y74.17 E1.87973
G1 X145.157 Y74.998 E1.91095
G1 X145.526 Y75.86 E1.94214
G1 X145.821 Y76.75 E1.97332
G1 X146.039 Y77.662 E2.00451
G1 X146.179 Y78.59 E2.03572
G1 X146.237 Y79.451 E2.06442
G1 X146.246 Y79.771 E2.07507
G1 X146.25 Y80.08 E2.08535
G1 X146.249 Y154.65 E4.56556
G1 X146.24 Y155.377 E4.58974
G1 X146.189 Y156.314 E4.62095
G1 X146.057 Y157.242 E4.65213
G1 X145.848 Y158.156 E4.68331
G1 X145.561 Y159.049 E4.71451
G1 X145.199 Y159.915 E4.74573
G1 X144.765 Y160.746 E4.77691
G1 X144.261 Y161.537 E4.8081
G1 X143.692 Y162.282 E4.83928
G1 X143.061 Y162.977 E4.87051
G1 X142.374 Y163.615 E4.90169
G1 X141.635 Y164.192 E4.93287
G1 X140.849 Y164.704 E4.96407
G1 X140.023 Y165.147 E4.99525
G1 X139.161 Y165.519 E5.02647
G1 X138.272 Y165.815 E5.05764
G1 X137.36 Y166.035 E5.08884
G1 X136.433 Y166.176 E5.12003
G1 X135.549 Y166.237 E5.1495
G1 X135.228 Y166.246 E5.16018
G1 X134.92 Y166.25 E5.17043
G1 X100.315 Y166.249 E6.32139
G1 X99.617 Y166.24 E6.34461
G1 X98.681 Y166.188 E6.37579
G1 X97.752 Y166.056 E6.407
G1 X96.838 Y165.846 E6.43819
G1 X95.945 Y165.559 E6.46939
G1 X95.08 Y165.196 E6.50059
G1 X94.249 Y164.762 E6.53177
G1 X93.458 Y164.258 E6.56297
G1 X92.713 Y163.688 E6.59416
G1 X92.019 Y163.057 E6.62536
G1 X91.382 Y162.37 E6.65652
G1 X90.805 Y161.63 E6.68773
G1 X90.293 Y160.844 E6.71893
G1 X89.85 Y160.017 E6.75014
G1 X89.479 Y159.156 E6.78132
G1 X89.183 Y158.266 E6.81251
G1 X88.964 Y157.354 E6.84371
G1 X88.823 Y156.427 E6.8749
G1 X88.763 Y155.538 E6.90453
G1 X88.754 Y155.205 E6.91561
G1 X88.75 Y154.908 E6.92549
G1 X88.751 Y80.275 E9.40779
G1 X88.76 Y79.61 E9.42991
G1 X88.813 Y78.674 E9.4611
G1 X88.945 Y77.745 E9.49231
G1 X89.156 Y76.831 E9.5235
G1 X89.444 Y75.939 E9.55468
G1 X89.807 Y75.074 E9.58588
G1 X90.242 Y74.243 E9.61708
G1 X90.746 Y73.453 E9.64825
G1 X91.316 Y72.708 E9.67945
G0 F6000 X91.711 Y72.861
G1 F1200 X92.339 Y72.189 E9.71004
G1 X93.024 Y71.573 E9.74068
G1 X93.76 Y71.02 E9.7713
G1 X94.541 Y70.532 E9.80193
G1 X95.361 Y70.114 E9.83254
G1 X96.215 Y69.769 E9.86317
G1 X97.095 Y69.499 E9.89379
G1 X97.995 Y69.307 E9.9244
G1 X98.909 Y69.193 E9.95503
G1 X99.462 Y69.163 E9.97345
G1 X99.783 Y69.154 E9.98413
G1 X100.08 Y69.15 E9.99401
G1 X134.543 Y69.15 E11.14026
G1 X135.393 Y69.161 E11.16853
G1 X136.312 Y69.214 E11.19915
G1 X137.223 Y69.347 E11.22977
G1 X138.119 Y69.558 E11.26038
G1 X138.993 Y69.846 E11.29099
G1 X139.84 Y70.209 E11.32164
G1 X140.651 Y70.644 E11.35225
G1 X141.421 Y71.148 E11.38286
G1 X142.145 Y71.717 E11.41348
G1 X142.817 Y72.347 E11.44412
G1 X143.432 Y73.032 E11.47474
G1 X143.985 Y73.768 E11.50536
G1 X144.472 Y74.549 E11.53597
G1 X144.889 Y75.37 E11.5666
G1 X145.234 Y76.224 E11.59723
G1 X145.503 Y77.104 E11.62784
G1 X145.695 Y78.005 E11.65848
G1 X145.808 Y78.918 E11.68908
G1 X145.837 Y79.462 E11.7072
G1 X145.846 Y79.782 E11.71784
G1 X145.85 Y80.08 E11.72776
G1 X145.849 Y154.645 E14.2078
G1 X145.84 Y155.372 E14.23198
G1 X145.789 Y156.291 E14.26259
G1 X145.658 Y157.203 E14.29324
G1 X145.448 Y158.099 E14.32385
G1 X145.162 Y158.974 E14.35446
G1 X144.801 Y159.821 E14.38509
G1 X144.367 Y160.633 E14.41571
G1 X143.865 Y161.405 E14.44634
G1 X143.297 Y162.13 E14.47697
G1 X142.669 Y162.803 E14.50759
G1 X141.985 Y163.419 E14.5382
G1 X141.25 Y163.973 E14.56882
G1 X140.47 Y164.462 E14.59944
G1 X139.65 Y164.881 E14.63006
G1 X138.797 Y165.227 E14.66068
G1 X137.917 Y165.498 E14.6913
G1 X137.017 Y165.691 E14.72192
G1 X136.103 Y165.806 E14.75256
G1 X135.538 Y165.837 E14.77138
G1 X135.217 Y165.846 E14.78206
G1 X134.92 Y165.85 E14.79194
G1 X100.32 Y165.849 E15.94274
G1 X99.622 Y165.84 E15.96596
G1 X98.703 Y165.788 E15.99657
G1 X97.792 Y165.657 E16.02718
G1 X96.896 Y165.447 E16.05779
G1 X96.021 Y165.16 E16.08842
G1 X95.174 Y164.798 E16.11906
G1 X94.362 Y164.364 E16.14968
G1 X93.591 Y163.862 E16.18028
G1 X92.866 Y163.294 E16.21091
G1 X92.193 Y162.665 E16.24155
G1 X91.578 Y161.981 E16.27214
G1 X91.024 Y161.246 E16.30276
G1 X90.536 Y160.465 E16.33339
G1 X90.117 Y159.645 E16.36401
G1 X89.771 Y158.792 E16.39463
G1 X89.501 Y157.912 E16.42525
G1 X89.308 Y157.011 E16.45589
G1 X89.194 Y156.098 E16.4865
G1 X89.163 Y155.527 E16.50552
G1 X89.154 Y155.194 E16.5166
G1 X89.15 Y154.908 E16.52611
G1 X89.151 Y80.281 E19.00821
G1 X89.16 Y79.616 E19.03033
G1 X89.212 Y78.696 E19.06098
G1 X89.344 Y77.785 E19.0916
G1 X89.555 Y76.889 E19.12221
G1 X89.842 Y76.014 E19.15284
G1 X90.205 Y75.168 E19.18346
G1 X90.639 Y74.356 E19.21408
G1 X91.142 Y73.585 E19.2447
G1 X91.711 Y72.861 E19.27533
G0 F6000 X92.105 Y73.017
G1 F1200 X92.731 Y72.367 E19.30534
G1 X93.412 Y71.774 E19.33538
G1 X94.144 Y71.244 E19.36544
G1 X94.919 Y70.781 E19.39546
G1 X95.732 Y70.388 E19.4255
G1 X96.577 Y70.068 E19.45555
G1 X97.446 Y69.825 E19.48556
G1 X98.334 Y69.659 E19.51561
G1 X99.473 Y69.563 E19.55362
G1 X99.794 Y69.554 E19.56431
G1 X100.08 Y69.55 E19.57382
G1 X134.543 Y69.55 E20.72006
G1 X135.387 Y69.561 E20.74814
G1 X136.289 Y69.614 E20.77819
G1 X137.182 Y69.746 E20.80821
G1 X138.06 Y69.957 E20.83825
G1 X138.916 Y70.245 E20.86829
G1 X139.743 Y70.607 E20.89831
G1 X140.535 Y71.042 E20.92837
G1 X141.286 Y71.544 E20.95841
G1 X141.989 Y72.111 E20.98845
G1 X142.639 Y72.738 E21.01849
G1 X143.231 Y73.42 E21.04852
G1 X143.761 Y74.151 E21.07856
G1 X144.223 Y74.927 E21.10859
G1 X144.616 Y75.74 E21.13863
G1 X144.934 Y76.585 E21.16866
G1 X145.177 Y77.455 E21.1987
G1 X145.342 Y78.343 E21.22874
G1 X145.437 Y79.473 E21.26646
G1 X145.446 Y79.793 E21.27711
G1 X145.45 Y80.08 E21.28665
G1 X145.449 Y154.64 E23.76653
G1 X145.44 Y155.367 E23.79071
G1 X145.389 Y156.269 E23.82076
G1 X145.258 Y157.163 E23.85081
G1 X145.049 Y158.041 E23.88083
G1 X144.763 Y158.898 E23.91088
G1 X144.402 Y159.726 E23.94092
G1 X143.97 Y160.518 E23.97093
G1 X143.469 Y161.27 E24.00098
G1 X142.903 Y161.974 E24.03102
G1 X142.278 Y162.625 E24.06104
G1 X141.597 Y163.219 E24.0911
G1 X140.866 Y163.75 E24.12115
G1 X140.092 Y164.214 E24.15116
G1 X139.279 Y164.608 E24.18121
G1 X138.435 Y164.928 E24.21123
G1 X137.565 Y165.173 E24.24129
G1 X136.678 Y165.339 E24.27131
G1 X135.527 Y165.437 E24.30973
G1 X135.206 Y165.446 E24.32041
G1 X134.92 Y165.45 E24.32992
G1 X100.325 Y165.449 E25.48056
G1 X99.627 Y165.44 E25.50377
G1 X98.726 Y165.389 E25.53379
G1 X97.832 Y165.257 E25.56385
G1 X96.954 Y165.048 E25.59387
G1 X96.097 Y164.761 E25.62393
G1 X95.27 Y164.4 E25.65394
G1 X94.477 Y163.967 E25.68399
G1 X93.726 Y163.466 E25.71402
G1 X93.022 Y162.9 E25.74406
G1 X92.371 Y162.274 E25.7741
G1 X91.778 Y161.593 E25.80413
G1 X91.248 Y160.862 E25.83416
G1 X90.784 Y160.087 E25.86421
G1 X90.39 Y159.274 E25.89426
G1 X90.07 Y158.43 E25.92428
G1 X89.826 Y157.56 E25.95433
G1 X89.66 Y156.672 E25.98438
G1 X89.563 Y155.517 E26.02293
G1 X89.554 Y155.184 E26.03401
G1 X89.55 Y154.908 E26.04319
G1 X89.551 Y80.286 E28.52512
G1 X89.56 Y79.621 E28.54725
G1 X89.612 Y78.719 E28.5773
G1 X89.744 Y77.826 E28.60732
G1 X89.954 Y76.948 E28.63735
G1 X90.241 Y76.091 E28.66741
G1 X90.603 Y75.264 E28.69743
G1 X91.036 Y74.472 E28.72745
G1 X91.538 Y73.721 E28.7575
G1 X92.105 Y73.017 E28.78756
G1 F2700 E23.78756
;MESH:Tracktor-Dash-XIAO-TOP.STL
G0 F6000 X107.913 Y94.493
G0 X106.556 Y93.952
G0 X106.069 Y97.864
G0 X106.152 Y99.802
G0 X106.56 Y101.7
G0 X107.285 Y103.5
G0 X108.302 Y105.152
G0 X109.584 Y106.61
G0 X111.094 Y107.829
G0 X112.787 Y108.776
G0 X114.268 Y109.298
G0 X116.516 Y109.91
;TYPE:WALL-INNER
G1 F2700 E28.78756
G1 F1200 X118.484 Y109.91 E28.85302
G1 X120.424 Y109.578 E28.91848
G1 X122.279 Y108.923 E28.98391
G1 X123.997 Y107.963 E29.04937
G1 X125.528 Y106.727 E29.11481
G1 X126.828 Y105.249 E29.18028
G1 X127.859 Y103.573 E29.24573
G1 X128.594 Y101.748 E29.31117
G1 X129.008 Y99.823 E29.37666
G1 X129.092 Y97.857 E29.44211
G1 X128.841 Y95.906 E29.50753
G1 X128.266 Y94.024 E29.57298
G1 X127.38 Y92.268 E29.6384
G1 X126.209 Y90.685 E29.70389
G1 X124.788 Y89.324 E29.76933
G1 X123.159 Y88.222 E29.83475
G1 X121.366 Y87.411 E29.9002
G1 X119.461 Y86.914 E29.96568
G1 X117.5 Y86.748 E30.03114
G1 X115.539 Y86.914 E30.09659
G1 X113.634 Y87.411 E30.16208
G1 X111.841 Y88.222 E30.22753
G1 X110.212 Y89.324 E30.29294
G1 X108.791 Y90.685 E30.35839
G1 X107.62 Y92.268 E30.42388
G1 X106.734 Y94.024 E30.48929
G1 X106.159 Y95.906 E30.55475
G1 X105.908 Y97.857 E30.62017
G1 X105.992 Y99.823 E30.68562
G1 X106.406 Y101.748 E30.75111
G1 X107.141 Y103.573 E30.81655
G1 X108.172 Y105.249 E30.88199
G1 X109.472 Y106.727 E30.94746
G1 X111.003 Y107.963 E31.01291
G1 X112.721 Y108.923 E31.07836
G1 X114.576 Y109.578 E31.14379
G1 X116.516 Y109.91 E31.20926
G0 F6000 X116.55 Y109.51
;TYPE:WALL-OUTER
G1 F1200 X118.45 Y109.51 E31.27245
G1 X120.323 Y109.189 E31.33566
G1 X122.114 Y108.557 E31.39883
G1 X123.772 Y107.63 E31.462
G1 X125.25 Y106.437 E31.52518
G1 X126.505 Y105.01 E31.58839
G1 X127.501 Y103.392 E31.65158
G1 X128.21 Y101.63 E31.71475
G1 X128.61 Y99.772 E31.77796
G1 X128.691 Y97.874 E31.84115
G1 X128.449 Y95.991 E31.90429
G1 X127.893 Y94.174 E31.96749
G1 X127.038 Y92.478 E32.03066
G1 X125.908 Y90.95 E32.09387
G1 X124.536 Y89.636 E32.15706
G1 X122.963 Y88.572 E32.22022
G1 X121.232 Y87.789 E32.28341
G1 X119.393 Y87.31 E32.34662
G1 X117.5 Y87.149 E32.40981
G1 X115.607 Y87.31 E32.47299
G1 X113.768 Y87.789 E32.5362
G1 X112.037 Y88.572 E32.59939
G1 X110.464 Y89.636 E32.66255
G1 X109.092 Y90.95 E32.72574
G1 X107.962 Y92.478 E32.78895
G1 X107.107 Y94.174 E32.85212
G1 X106.551 Y95.991 E32.91532
G1 X106.309 Y97.874 E32.97846
G1 X106.39 Y99.772 E33.04165
G1 X106.79 Y101.63 E33.10486
G1 X107.499 Y103.392 E33.16803
G1 X108.495 Y105.01 E33.23123
G1 X109.75 Y106.437 E33.29443
G1 X111.228 Y107.63 E33.35761
G1 X112.886 Y108.557 E33.42079
G1 X114.677 Y109.189 E33.48395
G1 X116.55 Y109.51 E33.54716
G0 F6000 X116.513 Y109.948
G1 F2700 E28.54716
G0 F6000 X116.623 Y108.646
G0 X112.972 Y142.263
G0 X113.214 Y140.822
G0 X114.634 Y141.998
G0 X115.083 Y142.728
G0 X115.264 Y143.569
G0 X115.156 Y144.419
G0 X114.768 Y145.185
G0 X114.147 Y145.78
G0 X112.955 Y146.368
;TYPE:WALL-INNER
G1 F2700 E33.54716
G1 F1200 X113.407 Y146.29 E33.56241
G1 X113.84 Y146.138 E33.57768
G1 X114.238 Y145.913 E33.59288
G1 X114.595 Y145.627 E33.6081
G1 X114.898 Y145.282 E33.62337
G1 X115.138 Y144.892 E33.6386
G1 X115.31 Y144.466 E33.65388
G1 X115.405 Y144.018 E33.66911
G1 X115.425 Y143.562 E33.68429
G1 X115.367 Y143.105 E33.69962
G1 X115.232 Y142.667 E33.71486
G1 X115.026 Y142.259 E33.73006
G1 X114.755 Y141.891 E33.74526
G1 X114.423 Y141.572 E33.76058
G1 X114.043 Y141.315 E33.77583
G1 X113.626 Y141.126 E33.79106
G1 X113.182 Y141.011 E33.80632
G1 X112.725 Y140.973 E33.82157
G1 X112.268 Y141.011 E33.83682
G1 X111.824 Y141.126 E33.85208
G1 X111.407 Y141.315 E33.8673
G1 X111.027 Y141.572 E33.88256
G1 X110.695 Y141.891 E33.89788
G1 X110.424 Y142.259 E33.91308
G1 X110.218 Y142.667 E33.92828
G1 X110.083 Y143.105 E33.94352
G1 X110.025 Y143.562 E33.95884
G1 X110.045 Y144.018 E33.97402
G1 X110.14 Y144.466 E33.98926
G1 X110.312 Y144.892 E34.00454
G1 X110.552 Y145.282 E34.01977
G1 X110.855 Y145.627 E34.03504
G1 X111.212 Y145.913 E34.05025
G1 X111.611 Y146.138 E34.06549
G1 X111.965 Y146.262 E34.07796
G1 X112.031 Y146.288 E34.08032
G1 X112.495 Y146.368 E34.09598
G1 X112.955 Y146.368 E34.11128
G0 F6000 X112.921 Y145.968
;TYPE:WALL-OUTER
G1 F1200 X113.306 Y145.902 E34.12428
G1 X113.674 Y145.772 E34.13726
G1 X114.013 Y145.581 E34.1502
G1 X114.317 Y145.337 E34.16316
G1 X114.575 Y145.043 E34.17617
G1 X114.78 Y144.711 E34.18915
G1 X114.926 Y144.349 E34.20213
G1 X115.007 Y143.967 E34.21512
G1 X115.024 Y143.578 E34.22807
G1 X114.975 Y143.19 E34.24108
G1 X114.86 Y142.817 E34.25406
G1 X114.684 Y142.469 E34.26703
G1 X114.453 Y142.156 E34.27997
G1 X114.171 Y141.884 E34.293
G1 X113.847 Y141.666 E34.30599
G1 X113.492 Y141.505 E34.31896
G1 X113.114 Y141.407 E34.33194
G1 X112.725 Y141.374 E34.34493
G1 X112.336 Y141.407 E34.35791
G1 X111.958 Y141.505 E34.3709
G1 X111.603 Y141.666 E34.38387
G1 X111.279 Y141.884 E34.39685
G1 X110.997 Y142.156 E34.40989
G1 X110.766 Y142.469 E34.42282
G1 X110.59 Y142.817 E34.43579
G1 X110.475 Y143.19 E34.44878
G1 X110.426 Y143.578 E34.46178
G1 X110.443 Y143.967 E34.47474
G1 X110.524 Y144.349 E34.48772
G1 X110.67 Y144.711 E34.50071
G1 X110.875 Y145.043 E34.51368
G1 X111.133 Y145.337 E34.52669
G1 X111.437 Y145.581 E34.53966
G1 X111.776 Y145.772 E34.5526
G1 X112.097 Y145.884 E34.56391
G1 X112.14 Y145.901 E34.56545
G1 X112.529 Y145.968 E34.57857
G1 X112.921 Y145.968 E34.59161
G0 F6000 X112.958 Y146.406
G1 F2700 E29.59161
G0 F6000 X113.919 Y146.312
G0 X113.316 Y144.982
G0 X113.919 Y155.915
G0 X113.919 Y154.44
G0 X134.65 Y154.65
;TYPE:WALL-INNER
G1 F2700 E34.59161
G1 F1200 X100.35 Y154.65 E35.73243
G1 X100.35 Y80.35 E38.20366
G1 X134.65 Y80.35 E39.34449
G1 X134.65 Y154.65 E41.81571
G0 F6000 X135.05 Y155.05
;TYPE:WALL-OUTER
G1 F1200 X99.95 Y155.05 E42.98314
G1 X99.95 Y79.95 E45.48098
G1 X135.05 Y79.95 E46.64841
G1 X135.05 Y155.05 E49.14625
G0 F6000 X134.78 Y154.78
G0 X134.54 Y154.26
G0 X134.26 Y154.26
;TYPE:SKIN
G1 F1200 X100.74 Y154.26 E50.26113
G1 X100.74 Y80.74 E52.70641
G1 X134.26 Y80.74 E53.82129
G1 X134.26 Y154.26 E56.26658
G1 F2700 E51.26658
G0 F6000 X134.54 Y154.26
G0 X134.44 Y144.942
G0 X135.915 Y144.942
G0 X114.097 Y144.094
G0 X115.493 Y144.523
G0 X115.237 Y144.942
G0 X115.487 Y145.068
G1 F2700 E56.26658
G1 F1200 X115.684 Y144.581 E56.28405
G1 X115.793 Y144.067 E56.30153
G1 X115.817 Y143.546 E56.31887
G1 X115.749 Y143.023 E56.33641
G1 X115.595 Y142.521 E56.35388
G1 X115.359 Y142.054 E56.37128
G1 X115.049 Y141.633 E56.38867
G1 X114.669 Y141.268 E56.4062
G1 X114.234 Y140.974 E56.42366
G1 X113.757 Y140.757 E56.44109
G1 X113.248 Y140.625 E56.45858
G1 X112.725 Y140.581 E56.47603
G1 X112.202 Y140.625 E56.49349
G1 X111.693 Y140.757 E56.51098
G1 X111.216 Y140.974 E56.52841
G1 X110.781 Y141.268 E56.54587
G1 X110.401 Y141.633 E56.5634
G1 X110.091 Y142.054 E56.58079
G1 X109.855 Y142.521 E56.59819
G1 X109.701 Y143.023 E56.61565
G1 X109.633 Y143.546 E56.6332
G1 X109.657 Y144.067 E56.65054
G1 X109.766 Y144.581 E56.66802
G1 X109.963 Y145.068 E56.68549
