;FLAVOR:Marlin
;TIME:7996
;Filament used: 5.84646m
;Layer height: 0.2
;MINX:70.75
;MINY:84.317
;MINZ:0.2
;MAXX:168.25
;MAXY:151.25
;MAXZ:23
;Generated with Cura_SteamEngine 4.8.0
M140 S60
M105
M190 S60
M104 S200
M105
M109 S200
M82 ;absolute extrusion mode
; Ender 3 Custom Start G-code
G92 E0 ; Reset Extruder
G28 ; Home all axes
G1 Z2.0 F3000 ; Move Z Axis up little to prevent scratching of Heat Bed
G1 X0.1 Y20 Z0.3 F5000.0 ; Move to start position
G1 X0.1 Y200.0 Z0.3 F1500.0 E15 ; Draw the first line
G1 X0.4 Y200.0 Z0.3 F5000.0 ; Move to side a little
G1 X0.4 Y20 Z0.3 F1500.0 E30 ; Draw the second line
G92 E0 ; Reset Extruder
G1 Z2.0 F3000 ; Move Z Axis up little to prevent scratching of Heat Bed
G1 X5 Y20 Z0.3 F5000.0 ; Move over to prevent blob squish
G92 E0
G92 E0
G1 F2700 E-5
;LAYER_COUNT:115
;LAYER:0
M107
G0 F6000 X74.663 Y96.354 Z0.2
;TYPE:SKIRT
G1 F2700 E0
G1 F1200 X75.404 Y95.78 E0.03118
G1 X76.192 Y95.271 E0.06238
G1 X77.02 Y94.831 E0.09356
G1 X77.883 Y94.463 E0.12477
G1 X78.988 Y94.112 E0.16333
G1 X79.981 Y93.855 E0.19744
G1 X80.909 Y93.625 E0.22924
G1 X83.366 Y92.945 E0.31404
G1 X85.748 Y92.212 E0.39693
G1 X88.16 Y91.394 E0.48164
G1 X90.508 Y90.523 E0.56493
G1 X92.828 Y89.587 E0.64814
G1 X95.133 Y88.58 E0.7318
G1 X97.409 Y87.509 E0.81546
G1 X100.535 Y85.908 E0.93228
G1 X100.792 Y85.77 E0.94198
G1 X101.223 Y85.55 E0.95808
G1 X101.935 Y85.235 E0.98397
G1 X102.132 Y85.156 E0.99103
G1 X103.016 Y84.845 E1.0222
G1 X104.088 Y84.576 E1.05896
G1 X104.305 Y84.533 E1.06632
G1 X105.232 Y84.39 E1.09751
G1 X106.325 Y84.324 E1.13393
G1 X106.908 Y84.318 E1.15332
G1 X118.06 Y84.317 E1.52424
G1 X118.919 Y84.328 E1.55281
G1 X119.855 Y84.381 E1.584
G1 X120.784 Y84.514 E1.61521
G1 X121.697 Y84.726 E1.64638
G1 X122.412 Y84.95 E1.6713
G1 X122.877 Y85.116 E1.68773
G1 X123.485 Y85.364 E1.70957
G1 X124.245 Y85.701 E1.73722
G1 X125.371 Y86.219 E1.77844
G1 X127.737 Y87.226 E1.86397
G1 X130.061 Y88.141 E1.94704
G1 X132.447 Y88.998 E2.03136
G1 X134.814 Y89.777 E2.11424
G1 X137.215 Y90.492 E2.19756
G1 X139.638 Y91.139 E2.28098
G1 X142.137 Y91.732 E2.3664
G1 X144.57 Y92.238 E2.44906
G1 X147.049 Y92.678 E2.5328
G1 X149.547 Y93.05 E2.6168
G1 X152.039 Y93.351 E2.70028
G1 X154.533 Y93.579 E2.78358
G1 X157.897 Y93.78 E2.89567
G1 X158.83 Y93.875 E2.92686
G1 X159.752 Y94.05 E2.95807
G1 X160.655 Y94.303 E2.98926
G1 X161.533 Y94.632 E3.02045
G1 X162.38 Y95.034 E3.05163
G1 X163.19 Y95.508 E3.08285
G1 X163.957 Y96.048 E3.11404
G1 X164.674 Y96.652 E3.14523
G1 X165.338 Y97.314 E3.17641
G1 X165.943 Y98.031 E3.20761
G1 X166.484 Y98.797 E3.2388
G1 X166.959 Y99.606 E3.27001
G1 X167.363 Y100.453 E3.30122
G1 X167.693 Y101.33 E3.33239
G1 X167.947 Y102.233 E3.36358
G1 X168.123 Y103.154 E3.39477
G1 X168.236 Y104.436 E3.43758
G1 X168.245 Y104.741 E3.44773
G1 X168.25 Y105.065 E3.4585
G1 X168.249 Y139.65 E4.6088
G1 X168.24 Y140.377 E4.63299
G1 X168.189 Y141.314 E4.6642
G1 X168.057 Y142.242 E4.69537
G1 X167.848 Y143.156 E4.72656
G1 X167.561 Y144.049 E4.75776
G1 X167.199 Y144.915 E4.78897
G1 X166.765 Y145.746 E4.82016
G1 X166.261 Y146.537 E4.85135
G1 X165.692 Y147.282 E4.88253
G1 X165.061 Y147.977 E4.91375
G1 X164.374 Y148.615 E4.94494
G1 X163.635 Y149.192 E4.97612
G1 X162.849 Y149.704 E5.00732
G1 X162.023 Y150.147 E5.03849
G1 X161.161 Y150.519 E5.06972
G1 X160.272 Y150.815 E5.10088
G1 X159.36 Y151.035 E5.13209
G1 X158.433 Y151.176 E5.16327
G1 X157.549 Y151.237 E5.19275
G1 X157.228 Y151.246 E5.20343
G1 X156.92 Y151.25 E5.21367
G1 X82.315 Y151.249 E7.69504
G1 X81.617 Y151.24 E7.71826
G1 X80.681 Y151.188 E7.74944
G1 X79.752 Y151.056 E7.78065
G1 X78.838 Y150.846 E7.81184
G1 X77.945 Y150.559 E7.84304
G1 X77.08 Y150.196 E7.87424
G1 X76.249 Y149.762 E7.90542
G1 X75.458 Y149.258 E7.93662
G1 X74.713 Y148.688 E7.96782
G1 X74.019 Y148.057 E7.99901
G1 X73.382 Y147.37 E8.03017
G1 X72.805 Y146.63 E8.06138
G1 X72.293 Y145.844 E8.09258
G1 X71.85 Y145.017 E8.12379
G1 X71.479 Y144.156 E8.15497
G1 X71.183 Y143.266 E8.18617
G1 X70.964 Y142.354 E8.21736
G1 X70.823 Y141.427 E8.24855
G1 X70.763 Y140.538 E8.27818
G1 X70.754 Y140.205 E8.28926
G1 X70.75 Y139.908 E8.29914
G1 X70.751 Y105.243 E9.4521
G1 X70.762 Y104.576 E9.47429
G1 X70.818 Y103.639 E9.50551
G1 X70.953 Y102.711 E9.5367
G1 X71.166 Y101.798 E9.56789
G1 X71.457 Y100.906 E9.59909
G1 X71.822 Y100.043 E9.63026
G1 X72.26 Y99.213 E9.66147
G1 X72.767 Y98.424 E9.69266
G1 X73.339 Y97.681 E9.72385
G1 X73.973 Y96.989 E9.75507
G1 X74.663 Y96.354 E9.78626
G0 F6000 X75.051 Y96.551
G1 F1200 X75.788 Y96 E9.81686
G1 X76.57 Y95.515 E9.84747
G1 X77.392 Y95.099 E9.87811
G1 X78.246 Y94.757 E9.90871
G1 X79.089 Y94.499 E9.93803
G1 X80.077 Y94.243 E9.97197
G1 X81.041 Y94.005 E10.005
G1 X83.453 Y93.337 E10.08824
G1 X85.878 Y92.59 E10.17264
G1 X88.29 Y91.772 E10.25735
G1 X90.66 Y90.893 E10.34142
G1 X92.989 Y89.954 E10.42495
G1 X95.298 Y88.945 E10.50876
G1 X97.572 Y87.875 E10.59234
G1 X100.707 Y86.269 E10.7095
G1 X100.981 Y86.122 E10.71984
G1 X101.398 Y85.91 E10.7354
G1 X102.084 Y85.607 E10.76034
G1 X102.281 Y85.528 E10.7674
G1 X103.149 Y85.222 E10.79801
G1 X104.166 Y84.968 E10.83288
G1 X104.383 Y84.925 E10.84024
G1 X105.293 Y84.786 E10.87085
G1 X106.329 Y84.724 E10.90537
G1 X106.908 Y84.718 E10.92463
G1 X118.06 Y84.717 E11.29555
G1 X118.913 Y84.728 E11.32392
G1 X119.832 Y84.781 E11.35454
G1 X120.743 Y84.914 E11.38516
G1 X121.639 Y85.125 E11.41578
G1 X122.28 Y85.328 E11.43814
G1 X122.737 Y85.491 E11.45428
G1 X123.323 Y85.729 E11.47531
G1 X124.078 Y86.064 E11.50279
G1 X125.226 Y86.592 E11.54481
G1 X127.57 Y87.59 E11.62955
G1 X129.946 Y88.525 E11.71447
G1 X132.292 Y89.368 E11.79739
G1 X134.691 Y90.157 E11.88138
G1 X137.112 Y90.878 E11.9654
G1 X139.573 Y91.535 E12.05012
G1 X142.001 Y92.112 E12.13312
G1 X144.523 Y92.636 E12.2188
G1 X146.987 Y93.073 E12.30203
G1 X149.482 Y93.445 E12.38593
G1 X151.988 Y93.747 E12.46988
G1 X154.504 Y93.978 E12.55392
G1 X157.874 Y94.179 E12.6662
G1 X158.789 Y94.274 E12.6968
G1 X159.693 Y94.448 E12.72742
G1 X160.579 Y94.699 E12.75805
G1 X161.439 Y95.027 E12.78866
G1 X162.268 Y95.428 E12.81929
G1 X163.059 Y95.899 E12.84991
G1 X163.806 Y96.438 E12.88055
G1 X164.503 Y97.039 E12.91116
G1 X165.146 Y97.698 E12.94178
G1 X165.729 Y98.41 E12.97239
G1 X166.248 Y99.171 E13.00303
G1 X166.699 Y99.974 E13.03366
G1 X167.078 Y100.812 E13.06425
G1 X167.384 Y101.681 E13.09489
G1 X167.613 Y102.572 E13.12549
G1 X167.764 Y103.481 E13.15614
G1 X167.836 Y104.447 E13.18835
G1 X167.845 Y104.752 E13.1985
G1 X167.85 Y105.065 E13.20891
G1 X167.849 Y139.645 E14.35905
G1 X167.84 Y140.372 E14.38323
G1 X167.789 Y141.291 E14.41385
G1 X167.658 Y142.203 E14.44449
G1 X167.448 Y143.099 E14.4751
G1 X167.162 Y143.974 E14.50572
G1 X166.801 Y144.821 E14.53634
G1 X166.367 Y145.633 E14.56696
G1 X165.865 Y146.405 E14.59759
G1 X165.297 Y147.13 E14.62822
G1 X164.669 Y147.803 E14.65884
G1 X163.985 Y148.419 E14.68945
G1 X163.25 Y148.973 E14.72007
G1 X162.47 Y149.462 E14.75069
G1 X161.65 Y149.881 E14.78131
G1 X160.797 Y150.227 E14.81193
G1 X159.917 Y150.498 E14.84256
G1 X159.017 Y150.691 E14.87317
G1 X158.103 Y150.806 E14.90381
G1 X157.538 Y150.837 E14.92263
G1 X157.217 Y150.846 E14.93331
G1 X156.92 Y150.85 E14.94319
G1 X82.32 Y150.849 E17.4244
G1 X81.622 Y150.84 E17.44761
G1 X80.703 Y150.788 E17.47823
G1 X79.792 Y150.657 E17.50884
G1 X78.896 Y150.447 E17.53945
G1 X78.021 Y150.16 E17.57008
G1 X77.174 Y149.798 E17.60071
G1 X76.362 Y149.364 E17.63134
G1 X75.591 Y148.862 E17.66194
G1 X74.866 Y148.294 E17.69257
G1 X74.193 Y147.665 E17.72321
G1 X73.578 Y146.981 E17.7538
G1 X73.024 Y146.246 E17.78441
G1 X72.536 Y145.465 E17.81504
G1 X72.117 Y144.645 E17.84567
G1 X71.771 Y143.792 E17.87629
G1 X71.501 Y142.912 E17.9069
G1 X71.308 Y142.011 E17.93755
G1 X71.194 Y141.098 E17.96815
G1 X71.163 Y140.527 E17.98717
G1 X71.154 Y140.194 E17.99825
G1 X71.15 Y139.908 E18.00777
G1 X71.151 Y105.249 E19.16053
G1 X71.162 Y104.582 E19.18272
G1 X71.218 Y103.663 E19.21334
G1 X71.352 Y102.752 E19.24396
G1 X71.565 Y101.857 E19.27456
G1 X71.856 Y100.983 E19.3052
G1 X72.22 Y100.138 E19.3358
G1 X72.657 Y99.327 E19.36644
G1 X73.163 Y98.558 E19.39706
G1 X73.733 Y97.835 E19.42768
G1 X74.364 Y97.165 E19.45829
G1 X75.051 Y96.551 E19.48894
G0 F6000 X75.438 Y96.753
G1 F1200 X76.171 Y96.225 E19.51899
G1 X76.947 Y95.764 E19.54901
G1 X77.762 Y95.374 E19.57906
G1 X78.607 Y95.057 E19.60908
G1 X79.19 Y94.886 E19.62928
G1 X80.173 Y94.631 E19.66306
G1 X81.129 Y94.395 E19.69581
G1 X83.572 Y93.718 E19.78013
G1 X86.029 Y92.962 E19.86563
G1 X88.41 Y92.154 E19.94926
G1 X90.8 Y91.268 E20.03403
G1 X93.132 Y90.327 E20.11767
G1 X95.479 Y89.302 E20.20286
G1 X97.745 Y88.235 E20.28616
G1 X100.92 Y86.609 E20.4048
G1 X101.17 Y86.475 E20.41424
G1 X101.573 Y86.27 E20.42928
G1 X102.233 Y85.978 E20.45328
G1 X102.43 Y85.899 E20.46034
G1 X103.282 Y85.6 E20.49037
G1 X104.243 Y85.361 E20.52331
G1 X104.46 Y85.318 E20.53067
G1 X105.353 Y85.181 E20.56072
G1 X106.334 Y85.124 E20.5934
G1 X106.908 Y85.118 E20.61249
G1 X118.06 Y85.117 E20.98341
G1 X118.907 Y85.128 E21.01158
G1 X119.809 Y85.181 E21.04163
G1 X120.702 Y85.313 E21.07166
G1 X121.581 Y85.524 E21.10172
G1 X122.147 Y85.705 E21.12149
G1 X122.596 Y85.865 E21.13734
G1 X123.162 Y86.095 E21.15766
G1 X123.773 Y86.365 E21.17988
G1 X125.051 Y86.952 E21.22666
G1 X127.415 Y87.959 E21.31212
G1 X129.79 Y88.894 E21.39701
G1 X132.18 Y89.752 E21.48147
G1 X134.557 Y90.534 E21.5647
G1 X137 Y91.262 E21.64949
G1 X139.483 Y91.925 E21.73496
G1 X141.94 Y92.508 E21.81895
G1 X144.437 Y93.027 E21.90378
G1 X146.894 Y93.463 E21.98677
G1 X149.446 Y93.844 E22.0726
G1 X151.974 Y94.148 E22.15728
G1 X154.442 Y94.374 E22.23971
G1 X157.85 Y94.578 E22.35327
G1 X158.748 Y94.672 E22.3833
G1 X159.634 Y94.845 E22.41332
G1 X160.502 Y95.095 E22.44336
G1 X161.344 Y95.422 E22.47341
G1 X162.154 Y95.821 E22.50344
G1 X162.925 Y96.291 E22.53347
G1 X163.652 Y96.827 E22.56351
G1 X164.329 Y97.425 E22.59356
G1 X164.95 Y98.081 E22.6236
G1 X165.51 Y98.789 E22.65363
G1 X166.006 Y99.544 E22.68367
G1 X166.433 Y100.339 E22.71369
G1 X166.788 Y101.17 E22.74374
G1 X167.068 Y102.028 E22.77376
G1 X167.272 Y102.908 E22.8038
G1 X167.396 Y103.803 E22.83386
G1 X167.437 Y104.459 E22.85572
G1 X167.446 Y104.764 E22.86587
G1 X167.45 Y105.065 E22.87588
G1 X167.449 Y139.64 E24.02585
G1 X167.44 Y140.367 E24.05003
G1 X167.389 Y141.269 E24.08008
G1 X167.258 Y142.163 E24.11013
G1 X167.049 Y143.041 E24.14015
G1 X166.763 Y143.898 E24.1702
G1 X166.402 Y144.726 E24.20024
G1 X165.97 Y145.518 E24.23025
G1 X165.469 Y146.27 E24.2603
G1 X164.903 Y146.974 E24.29035
G1 X164.278 Y147.625 E24.32036
G1 X163.597 Y148.219 E24.35042
G1 X162.866 Y148.75 E24.38047
G1 X162.092 Y149.214 E24.41048
G1 X161.279 Y149.608 E24.44053
G1 X160.435 Y149.928 E24.47055
G1 X159.565 Y150.173 E24.50061
G1 X158.678 Y150.339 E24.53063
G1 X157.527 Y150.437 E24.56905
G1 X157.206 Y150.446 E24.57973
G1 X156.92 Y150.45 E24.58924
G1 X82.325 Y150.449 E27.07028
G1 X81.627 Y150.44 E27.0935
G1 X80.726 Y150.389 E27.12352
G1 X79.832 Y150.257 E27.15357
G1 X78.954 Y150.048 E27.18359
G1 X78.097 Y149.761 E27.21365
G1 X77.27 Y149.4 E27.24366
G1 X76.477 Y148.967 E27.27371
G1 X75.726 Y148.466 E27.30374
G1 X75.022 Y147.9 E27.33379
G1 X74.371 Y147.274 E27.36382
G1 X73.778 Y146.593 E27.39386
G1 X73.248 Y145.862 E27.42389
G1 X72.784 Y145.087 E27.45393
G1 X72.39 Y144.274 E27.48398
G1 X72.07 Y143.43 E27.514
G1 X71.826 Y142.56 E27.54406
G1 X71.66 Y141.672 E27.5741
G1 X71.563 Y140.517 E27.61265
G1 X71.554 Y140.184 E27.62373
G1 X71.55 Y139.908 E27.63291
G1 X71.551 Y105.256 E28.78544
G1 X71.562 Y104.589 E28.80763
G1 X71.617 Y103.687 E28.83769
G1 X71.752 Y102.794 E28.86773
G1 X71.964 Y101.917 E28.89774
G1 X72.254 Y101.061 E28.9278
G1 X72.618 Y100.235 E28.95782
G1 X73.054 Y99.444 E28.98786
G1 X73.558 Y98.695 E29.01789
G1 X74.127 Y97.993 E29.04794
G1 X74.755 Y97.344 E29.07798
G1 X75.438 Y96.753 E29.10802
G1 F2700 E24.10802
;MESH:Tracktor-Dash-XIAO-BOTTOM.STL
G0 F6000 X82.164 Y104.085
G0 X82.164 Y105.164
G0 X82.35 Y139.65
;TYPE:WALL-INNER
G1 F2700 E29.10802
G1 F1200 X82.35 Y105.35 E30.24884
G1 X106.496 Y105.35 E31.05194
G1 X106.496 Y95.918 E31.36565
G1 X118.405 Y95.917 E31.76174
G1 X118.604 Y95.917 E31.76836
G1 X118.604 Y96.116 E31.77265
G1 X118.604 Y105.35 E32.07977
G1 X156.65 Y105.35 E33.34518
G1 X156.65 Y139.65 E34.48601
G1 X82.35 Y139.65 E36.95724
G0 F6000 X81.95 Y140.05
;TYPE:WALL-OUTER
G1 F1200 X81.95 Y104.95 E38.12467
G1 X106.096 Y104.95 E38.92777
G1 X106.096 Y95.782 E39.23269
G1 X106.173 Y95.585 E39.23973
G1 X106.347 Y95.518 E39.24593
G1 X118.736 Y95.517 E39.65799
G1 X118.909 Y95.579 E39.6641
G1 X119.004 Y95.772 E39.67126
G1 X119.004 Y104.95 E39.97652
G1 X157.05 Y104.95 E41.24193
G1 X157.05 Y140.05 E42.40936
G1 X81.95 Y140.05 E44.9072
G0 F6000 X82.22 Y139.78
G0 X82.46 Y139.26
G0 X82.74 Y139.26
;TYPE:SKIN
G1 F1200 X82.74 Y105.74 E46.02208
G1 X106.886 Y105.74 E46.82518
G1 X106.886 Y96.308 E47.13889
G1 X118.214 Y96.307 E47.51566
G1 X118.214 Y105.74 E47.8294
G1 X156.26 Y105.74 E49.09482
G1 X156.26 Y139.26 E50.2097
G1 X82.74 Y139.26 E52.65498
G0 F6000 X83.096 Y139.099
G1 F1200 X82.899 Y138.902 E52.66425
G0 F6000 X82.899 Y138.336
G1 F1200 X83.662 Y139.099 E52.70014
G0 F6000 X84.227 Y139.099
G1 F1200 X82.899 Y137.771 E52.7626
G0 F6000 X82.899 Y137.205
G1 F1200 X84.793 Y139.099 E52.85169
G0 F6000 X85.359 Y139.099
G1 F1200 X82.899 Y136.639 E52.9674
G0 F6000 X82.899 Y136.074
G1 F1200 X85.924 Y139.099 E53.10969
G0 F6000 X86.49 Y139.099
G1 F1200 X82.899 Y135.508 E53.2786
G0 F6000 X82.899 Y134.942
G1 F1200 X87.056 Y139.099 E53.47413
G0 F6000 X87.621 Y139.099
G1 F1200 X82.899 Y134.377 E53.69624
G0 F6000 X82.899 Y133.811
G1 F1200 X88.187 Y139.099 E53.94497
G0 F6000 X88.753 Y139.099
G1 F1200 X82.899 Y133.245 E54.22033
G0 F6000 X82.899 Y132.68
G1 F1200 X89.318 Y139.099 E54.52226
G0 F6000 X89.884 Y139.099
G1 F1200 X82.899 Y132.114 E54.85081
G0 F6000 X82.899 Y131.548
G1 F1200 X90.45 Y139.099 E55.20598
G0 F6000 X91.015 Y139.099
G1 F1200 X82.899 Y130.983 E55.58774
G0 F6000 X82.899 Y130.417
G1 F1200 X91.581 Y139.099 E55.99611
G0 F6000 X92.147 Y139.099
G1 F1200 X82.899 Y129.851 E56.43111
G0 F6000 X82.899 Y129.285
G1 F1200 X92.713 Y139.099 E56.89273
G0 F6000 X93.278 Y139.099
G1 F1200 X82.899 Y128.72 E57.38093
G0 F6000 X82.899 Y128.154
G1 F1200 X93.844 Y139.099 E57.89574
G0 F6000 X94.41 Y139.099
G1 F1200 X82.899 Y127.588 E58.43719
G0 F6000 X82.899 Y127.023
G1 F1200 X94.975 Y139.099 E59.0052
G0 F6000 X95.541 Y139.099
G1 F1200 X82.899 Y126.457 E59.59985
G0 F6000 X82.899 Y125.891
G1 F1200 X96.107 Y139.099 E60.22111
G0 F6000 X96.672 Y139.099
G1 F1200 X82.899 Y125.326 E60.86895
G0 F6000 X82.899 Y124.76
G1 F1200 X97.238 Y139.099 E61.54341
G0 F6000 X97.804 Y139.099
G1 F1200 X82.899 Y124.194 E62.2445
G0 F6000 X82.899 Y123.629
G1 F1200 X98.369 Y139.099 E62.97216
G0 F6000 X98.935 Y139.099
G1 F1200 X82.899 Y123.063 E63.72644
G0 F6000 X82.899 Y122.497
G1 F1200 X99.501 Y139.099 E64.50735
G0 F6000 X100.066 Y139.099
G1 F1200 X82.899 Y121.932 E65.31483
G0 F6000 X82.899 Y121.366
G1 F1200 X100.632 Y139.099 E66.14894
G0 F6000 X101.198 Y139.099
G1 F1200 X82.899 Y120.8 E67.00967
G0 F6000 X82.899 Y120.235
G1 F1200 X101.763 Y139.099 E67.89697
G0 F6000 X102.329 Y139.099
G1 F1200 X82.899 Y119.669 E68.8109
G0 F6000 X82.899 Y119.103
G1 F1200 X102.895 Y139.099 E69.75145
G0 F6000 X103.461 Y139.099
G1 F1200 X82.899 Y118.537 E70.71862
G0 F6000 X82.899 Y117.972
G1 F1200 X104.026 Y139.099 E71.71237
G0 F6000 X104.592 Y139.099
G1 F1200 X82.899 Y117.406 E72.73275
G0 F6000 X82.899 Y116.84
G1 F1200 X105.158 Y139.099 E73.77974
G0 F6000 X105.723 Y139.099
G1 F1200 X82.899 Y116.275 E74.85331
G0 F6000 X82.899 Y115.709
