;FLAVOR:Marlin
;TIME:12166
;Filament used: 9.37244m
;Layer height: 0.2
;MINX:81.87
;MINY:87.75
;MINZ:0.2
;MAXX:153.13
;MAXY:147.132
;MAXZ:75
;Generated with Cura_SteamEngine 4.8.0
M140 S60
M105
M190 S60
M104 S200
M105
M109 S200
M82 ;absolute extrusion mode
; Ender 3 Custom Start G-code
G92 E0 ; Reset Extruder
G28 ; Home all axes
G1 Z2.0 F3000 ; Move Z Axis up little to prevent scratching of Heat Bed
G1 X0.1 Y20 Z0.3 F5000.0 ; Move to start position
G1 X0.1 Y200.0 Z0.3 F1500.0 E15 ; Draw the first line
G1 X0.4 Y200.0 Z0.3 F5000.0 ; Move to side a little
G1 X0.4 Y20 Z0.3 F1500.0 E30 ; Draw the second line
G92 E0 ; Reset Extruder
G1 Z2.0 F3000 ; Move Z Axis up little to prevent scratching of Heat Bed
G1 X5 Y20 Z0.3 F5000.0 ; Move over to prevent blob squish
G92 E0
G92 E0
G1 F2700 E-5
;LAYER_COUNT:375
;LAYER:0
M107
G0 F6000 X85.068 Y91.014 Z0.2
;TYPE:SKIRT
G1 F2700 E0
G1 F1200 X85.756 Y90.377 E0.03119
G1 X86.496 Y89.801 E0.06237
G1 X87.282 Y89.289 E0.09357
G1 X88.109 Y88.847 E0.12476
G1 X88.971 Y88.477 E0.15596
G1 X89.861 Y88.181 E0.18716
G1 X90.773 Y87.963 E0.21835
G1 X91.7 Y87.822 E0.24953
G1 X92.571 Y87.763 E0.27857
G1 X92.892 Y87.754 E0.28925
G1 X93.199 Y87.75 E0.29946
G1 X141.463 Y87.751 E1.90473
G1 X142.165 Y87.761 E1.92808
G1 X143.101 Y87.814 E1.95926
G1 X144.029 Y87.947 E1.99044
G1 X144.943 Y88.159 E2.02165
G1 X145.836 Y88.447 E2.05286
G1 X146.7 Y88.811 E2.08404
G1 X147.531 Y89.247 E2.11525
G1 X148.321 Y89.752 E2.14644
G1 X149.065 Y90.322 E2.17761
G1 X149.786 Y90.982 E2.21012
G1 X149.898 Y91.094 E2.21539
G1 X150.532 Y91.785 E2.24658
G1 X151.106 Y92.527 E2.27778
G1 X151.613 Y93.316 E2.30897
G1 X152.052 Y94.144 E2.34014
G1 X152.419 Y95.008 E2.37137
G1 X152.711 Y95.899 E2.40255
G1 X152.925 Y96.812 E2.43374
G1 X153.062 Y97.74 E2.46494
G1 X153.111 Y98.432 E2.48802
G1 X153.124 Y98.862 E2.50232
G1 X153.13 Y99.404 E2.52035
G1 X153.129 Y103.097 E2.64318
G1 X153.118 Y103.804 E2.6667
G1 X153.063 Y104.74 E2.69788
G1 X152.929 Y105.669 E2.7291
G1 X152.716 Y106.582 E2.76028
G1 X152.541 Y107.153 E2.78015
G1 X152.342 Y107.739 E2.80073
G1 X151.742 Y109.443 E2.86082
G1 X150.978 Y111.819 E2.94383
G1 X150.275 Y114.244 E3.02781
G1 X149.639 Y116.694 E3.11199
G1 X149.071 Y119.161 E3.19619
G1 X148.586 Y121.594 E3.27871
G1 X148.157 Y124.099 E3.36324
G1 X147.804 Y126.591 E3.44695
G1 X147.524 Y129.067 E3.52983
G1 X147.312 Y131.577 E3.61361
G1 X147.168 Y134.132 E3.69872
G1 X147.153 Y134.608 E3.71456
G1 X147.107 Y135.698 E3.75085
G1 X147.028 Y136.632 E3.78202
G1 X146.869 Y137.559 E3.8133
G1 X146.813 Y137.818 E3.82212
G1 X146.575 Y138.725 E3.85331
G1 X146.262 Y139.609 E3.8845
G1 X145.874 Y140.463 E3.91569
G1 X145.493 Y141.152 E3.94188
G1 X145.448 Y141.227 E3.94479
G1 X145.12 Y141.742 E3.9651
G1 X145.002 Y141.916 E3.97209
G1 X144.443 Y142.669 E4.00328
G1 X143.822 Y143.372 E4.03448
G1 X143.147 Y144.016 E4.06551
G1 X143.034 Y144.115 E4.07051
G1 X142.303 Y144.702 E4.10169
G1 X141.524 Y145.225 E4.1329
G1 X140.704 Y145.68 E4.16409
G1 X139.848 Y146.063 E4.19528
G1 X138.962 Y146.372 E4.22649
G1 X138.295 Y146.551 E4.24946
G1 X137.911 Y146.641 E4.26257
G1 X137.563 Y146.716 E4.27441
G1 X137.139 Y146.801 E4.2888
G1 X136.014 Y146.967 E4.32662
G1 X135.655 Y147.001 E4.33861
G1 X135.079 Y147.04 E4.35782
G1 X134.817 Y147.051 E4.36654
G1 X134.324 Y147.061 E4.38294
G1 X133.337 Y147.058 E4.41577
G1 X132.782 Y147.06 E4.43422
G1 X132.168 Y147.045 E4.45465
G1 X131.799 Y147.026 E4.46694
G1 X129.162 Y146.923 E4.55472
G1 X126.94 Y146.896 E4.62863
G1 X104.207 Y146.898 E5.38473
G1 X101.614 Y146.935 E5.47098
G1 X98.568 Y147.071 E5.57239
G1 X97.867 Y147.114 E5.59575
G1 X96.929 Y147.132 E5.62695
G1 X95.993 Y147.069 E5.65816
G1 X95.356 Y146.98 E5.67955
G1 X94.341 Y146.808 E5.71379
G1 X93.964 Y146.738 E5.72654
G1 X93.317 Y146.605 E5.74851
G1 X92.407 Y146.377 E5.77971
G1 X91.52 Y146.072 E5.81091
G1 X90.662 Y145.693 E5.84211
G1 X89.84 Y145.243 E5.87328
G1 X89.059 Y144.724 E5.90447
G1 X88.325 Y144.14 E5.93566
G1 X87.643 Y143.496 E5.96686
G1 X87.045 Y142.828 E5.99668
G1 X86.857 Y142.6 E6.00651
G1 X86.292 Y141.852 E6.03769
G1 X85.792 Y141.058 E6.0689
G1 X85.362 Y140.224 E6.10011
G1 X85.005 Y139.357 E6.13129
G1 X84.786 Y138.69 E6.15464
G1 X84.688 Y138.355 E6.16625
G1 X84.464 Y137.445 E6.19742
G1 X84.317 Y136.519 E6.2286
G1 X84.253 Y135.654 E6.25745
G1 X84.239 Y135.157 E6.27399
G1 X84.236 Y134.786 E6.28633
G1 X84.236 Y125.434 E6.59738
G1 X84.199 Y122.825 E6.68416
G1 X84.092 Y120.303 E6.76812
G1 X83.915 Y117.809 E6.85128
G1 X83.668 Y115.314 E6.93467
G1 X83.348 Y112.813 E7.01853
G1 X82.957 Y110.324 E7.10233
G1 X82.493 Y107.831 E7.18667
G1 X82.304 Y106.948 E7.21671
G1 X82.095 Y105.909 E7.25196
G1 X81.949 Y104.983 E7.28314
G1 X81.883 Y104.049 E7.31428
G1 X81.874 Y103.729 E7.32493
G1 X81.87 Y103.42 E7.3352
G1 X81.871 Y99.275 E7.47307
G1 X81.88 Y98.61 E7.49519
G1 X81.933 Y97.674 E7.52637
G1 X82.065 Y96.745 E7.55758
G1 X82.276 Y95.831 E7.58878
G1 X82.564 Y94.939 E7.61995
G1 X82.927 Y94.074 E7.65115
G1 X83.362 Y93.243 E7.68235
G1 X83.866 Y92.453 E7.71352
G1 X84.436 Y91.708 E7.74472
G1 X85.068 Y91.014 E7.77594
G0 F6000 X85.459 Y91.189
G1 F1200 X86.144 Y90.573 E7.80658
G1 X86.88 Y90.02 E7.8372
G1 X87.661 Y89.532 E7.86783
G1 X88.481 Y89.114 E7.89844
G1 X89.335 Y88.769 E7.92907
G1 X90.215 Y88.499 E7.95969
G1 X91.115 Y88.307 E7.9903
G1 X92.029 Y88.193 E8.02093
G1 X92.582 Y88.163 E8.03935
G1 X92.903 Y88.154 E8.05003
G1 X93.199 Y88.15 E8.05988
G1 X141.457 Y88.151 E9.66495
G1 X142.159 Y88.161 E9.6883
G1 X143.078 Y88.214 E9.71891
G1 X143.989 Y88.347 E9.74954
G1 X144.885 Y88.558 E9.78015
G1 X145.76 Y88.846 E9.81079
G1 X146.606 Y89.209 E9.84141
G1 X147.417 Y89.644 E9.87202
G1 X148.188 Y90.148 E9.90265
G1 X148.912 Y90.716 E9.93326
G1 X149.503 Y91.265 E9.96009
G1 X149.615 Y91.377 E9.96536
G1 X150.237 Y92.055 E9.99596
G1 X150.798 Y92.785 E10.02658
G1 X151.294 Y93.561 E10.05721
G1 X151.72 Y94.377 E10.08783
G1 X152.074 Y95.227 E10.11846
G1 X152.352 Y96.105 E10.14909
G1 X152.554 Y97.003 E10.1797
G1 X152.677 Y97.916 E10.21034
G1 X152.712 Y98.448 E10.22807
G1 X152.717 Y98.573 E10.23223
G1 X152.724 Y98.867 E10.24202
G1 X152.73 Y99.404 E10.25988
G1 X152.729 Y103.091 E10.38251
G1 X152.718 Y103.798 E10.40603
G1 X152.663 Y104.717 E10.43665
G1 X152.53 Y105.628 E10.46727
G1 X152.317 Y106.524 E10.4979
G1 X152.162 Y107.025 E10.51534
G1 X151.965 Y107.606 E10.53575
G1 X151.359 Y109.325 E10.59637
G1 X150.589 Y111.723 E10.68014
G1 X149.886 Y114.147 E10.76408
G1 X149.255 Y116.575 E10.84752
G1 X148.676 Y119.091 E10.93339
G1 X148.192 Y121.521 E11.0158
G1 X147.766 Y124.013 E11.09989
G1 X147.409 Y126.526 E11.18431
G1 X147.123 Y129.059 E11.26909
G1 X146.912 Y131.554 E11.35237
G1 X146.769 Y134.099 E11.43715
G1 X146.754 Y134.591 E11.45352
G1 X146.708 Y135.681 E11.48981
G1 X146.629 Y136.598 E11.52042
G1 X146.478 Y137.474 E11.54999
G1 X146.422 Y137.733 E11.5588
G1 X146.188 Y138.624 E11.58944
G1 X145.878 Y139.491 E11.62007
G1 X145.494 Y140.327 E11.65066
G1 X145.15 Y140.947 E11.67425
G1 X145.105 Y141.022 E11.67716
G1 X144.789 Y141.517 E11.69669
G1 X144.671 Y141.691 E11.70368
G1 X144.122 Y142.43 E11.7343
G1 X143.51 Y143.119 E11.76495
G1 X142.883 Y143.715 E11.79372
G1 X142.77 Y143.814 E11.79872
G1 X142.052 Y144.39 E11.82934
G1 X141.287 Y144.902 E11.85995
G1 X140.48 Y145.345 E11.89057
G1 X139.637 Y145.716 E11.92121
G1 X138.766 Y146.013 E11.95181
G1 X138.204 Y146.161 E11.97114
G1 X137.82 Y146.251 E11.98426
G1 X137.485 Y146.324 E11.99566
G1 X137.061 Y146.409 E12.01005
G1 X135.976 Y146.569 E12.04653
G1 X135.617 Y146.603 E12.05852
G1 X135.063 Y146.641 E12.07699
G1 X134.801 Y146.652 E12.08571
G1 X134.325 Y146.661 E12.10155
G1 X133.337 Y146.658 E12.13441
G1 X132.781 Y146.66 E12.1529
G1 X132.189 Y146.645 E12.1726
G1 X131.835 Y146.626 E12.18439
G1 X129.183 Y146.523 E12.27266
G1 X126.944 Y146.496 E12.34713
G1 X104.201 Y146.498 E13.10357
G1 X101.59 Y146.535 E13.19042
G1 X98.585 Y146.669 E13.29047
G1 X97.842 Y146.715 E13.31523
G1 X96.922 Y146.732 E13.34583
G1 X96.003 Y146.668 E13.37647
G1 X95.423 Y146.586 E13.39595
G1 X94.408 Y146.414 E13.43019
G1 X94.045 Y146.346 E13.44248
G1 X93.398 Y146.213 E13.46445
G1 X92.505 Y145.989 E13.49507
G1 X91.635 Y145.688 E13.52569
G1 X90.794 Y145.312 E13.55633
G1 X89.989 Y144.865 E13.58695
G1 X89.226 Y144.35 E13.61757
G1 X88.51 Y143.771 E13.6482
G1 X87.848 Y143.132 E13.6788
G1 X87.354 Y142.574 E13.70358
G1 X87.166 Y142.346 E13.71341
G1 X86.611 Y141.61 E13.74407
G1 X86.123 Y140.83 E13.77467
G1 X85.704 Y140.01 E13.8053
G1 X85.358 Y139.157 E13.83592
G1 X85.17 Y138.578 E13.85617
G1 X85.072 Y138.243 E13.86777
G1 X84.853 Y137.349 E13.89839
G1 X84.711 Y136.439 E13.92902
G1 X84.653 Y135.64 E13.95567
G1 X84.639 Y135.154 E13.97184
G1 X84.636 Y134.783 E13.98418
G1 X84.636 Y125.428 E14.29533
G1 X84.599 Y122.803 E14.38264
G1 X84.492 Y120.294 E14.46617
G1 X84.314 Y117.774 E14.55019
G1 X84.065 Y115.26 E14.63422
G1 X83.746 Y112.771 E14.71768
G1 X83.345 Y110.219 E14.8036
G1 X82.892 Y107.785 E14.88595
G1 X82.696 Y106.869 E14.9171
G1 X82.487 Y105.83 E14.95235
G1 X82.345 Y104.921 E14.98295
G1 X82.283 Y104.038 E15.01239
G1 X82.274 Y103.718 E15.02304
G1 X82.27 Y103.42 E15.03295
G1 X82.271 Y99.281 E15.17062
G1 X82.28 Y98.616 E15.19274
G1 X82.332 Y97.696 E15.22338
G1 X82.464 Y96.785 E15.254
G1 X82.675 Y95.889 E15.28462
G1 X82.962 Y95.014 E15.31524
G1 X83.325 Y94.168 E15.34586
G1 X83.759 Y93.356 E15.37649
G1 X84.262 Y92.585 E15.4071
G1 X84.831 Y91.861 E15.43773
G1 X85.459 Y91.189 E15.46832
G0 F6000 X85.851 Y91.367
G1 F1200 X86.532 Y90.774 E15.49836
G1 X87.264 Y90.244 E15.52842
G1 X88.039 Y89.781 E15.55844
G1 X88.852 Y89.388 E15.58848
G1 X89.697 Y89.068 E15.61853
G1 X90.566 Y88.825 E15.64854
G1 X91.454 Y88.659 E15.67859
G1 X92.593 Y88.563 E15.7166
G1 X92.914 Y88.554 E15.72729
G1 X93.199 Y88.55 E15.73677
G1 X141.451 Y88.551 E17.34163
G1 X142.153 Y88.561 E17.36498
G1 X143.055 Y88.614 E17.39504
G1 X143.948 Y88.746 E17.42506
G1 X144.826 Y88.957 E17.45509
G1 X145.682 Y89.245 E17.48513
G1 X146.51 Y89.607 E17.51519
G1 X147.302 Y90.041 E17.54523
G1 X148.052 Y90.544 E17.57526
G1 X148.755 Y91.11 E17.60528
G1 X149.22 Y91.548 E17.62653
G1 X149.332 Y91.66 E17.6318
G1 X149.942 Y92.326 E17.66183
G1 X150.491 Y93.043 E17.69187
G1 X150.973 Y93.807 E17.72192
G1 X151.387 Y94.61 E17.75196
G1 X151.727 Y95.446 E17.78198
G1 X151.993 Y96.309 E17.81202
G1 X152.181 Y97.192 E17.84204
G1 X152.312 Y98.464 E17.88457
G1 X152.324 Y98.872 E17.89815
G1 X152.33 Y99.404 E17.91585
G1 X152.329 Y103.085 E18.03828
G1 X152.318 Y103.792 E18.06179
G1 X152.264 Y104.693 E18.09182
G1 X152.13 Y105.586 E18.12185
G1 X151.918 Y106.464 E18.15189
G1 X151.783 Y106.897 E18.16698
G1 X151.587 Y107.473 E18.18721
G1 X150.984 Y109.185 E18.24758
G1 X150.21 Y111.594 E18.33174
G1 X149.503 Y114.031 E18.41614
G1 X148.864 Y116.491 E18.50067
G1 X148.288 Y118.995 E18.58613
G1 X147.799 Y121.447 E18.66929
G1 X147.368 Y123.966 E18.75429
G1 X147.01 Y126.492 E18.83915
G1 X146.729 Y128.979 E18.92239
G1 X146.513 Y131.537 E19.00777
G1 X146.368 Y134.101 E19.09319
G1 X146.354 Y134.574 E19.10893
G1 X146.308 Y135.664 E19.14521
G1 X146.23 Y136.564 E19.17526
G1 X146.087 Y137.39 E19.20314
G1 X146.031 Y137.649 E19.21195
G1 X145.801 Y138.522 E19.24198
G1 X145.495 Y139.372 E19.27203
G1 X145.115 Y140.191 E19.30206
G1 X144.807 Y140.741 E19.32302
G1 X144.762 Y140.816 E19.32593
G1 X144.458 Y141.293 E19.34475
G1 X144.34 Y141.467 E19.35174
G1 X143.8 Y142.191 E19.38178
G1 X143.199 Y142.865 E19.41181
G1 X142.62 Y143.414 E19.43835
G1 X142.507 Y143.513 E19.44335
G1 X141.802 Y144.078 E19.4734
G1 X141.049 Y144.577 E19.50344
G1 X140.256 Y145.009 E19.53348
G1 X139.428 Y145.368 E19.5635
G1 X138.571 Y145.653 E19.59353
G1 X138.113 Y145.772 E19.60927
G1 X137.729 Y145.862 E19.62239
G1 X137.406 Y145.932 E19.63338
G1 X136.982 Y146.017 E19.64777
G1 X135.939 Y146.171 E19.68283
G1 X135.58 Y146.205 E19.69483
G1 X135.046 Y146.241 E19.71263
G1 X134.784 Y146.252 E19.72135
G1 X134.326 Y146.261 E19.73659
G1 X133.337 Y146.258 E19.76948
G1 X132.78 Y146.26 E19.78801
G1 X132.21 Y146.246 E19.80697
G1 X131.799 Y146.224 E19.82066
G1 X129.203 Y146.123 E19.90707
G1 X126.949 Y146.096 E19.98204
G1 X104.195 Y146.098 E20.73884
G1 X101.599 Y146.135 E20.82519
G1 X98.544 Y146.271 E20.92691
G1 X97.818 Y146.316 E20.9511
G1 X96.915 Y146.331 E20.98114
G1 X96.014 Y146.267 E21.01118
G1 X95.49 Y146.192 E21.02879
G1 X94.475 Y146.02 E21.06303
G1 X94.125 Y145.954 E21.07487
G1 X93.478 Y145.821 E21.09684
G1 X92.602 Y145.6 E21.12689
G1 X91.75 Y145.303 E21.1569
G1 X90.927 Y144.931 E21.18694
G1 X90.14 Y144.488 E21.21698
G1 X89.395 Y143.977 E21.24702
G1 X88.698 Y143.402 E21.27708
G1 X88.055 Y142.768 E21.30711
G1 X87.662 Y142.319 E21.32696
G1 X87.474 Y142.091 E21.33679
G1 X86.931 Y141.37 E21.36681
G1 X86.454 Y140.603 E21.39685
G1 X86.047 Y139.797 E21.42688
G1 X85.712 Y138.958 E21.45693
G1 X85.554 Y138.466 E21.47411
G1 X85.456 Y138.131 E21.48572
G1 X85.241 Y137.254 E21.51576
G1 X85.105 Y136.361 E21.5458
G1 X85.052 Y135.626 E21.57031
G1 X85.045 Y135.427 E21.57693
G1 X85.039 Y135.15 E21.58615
G1 X85.036 Y134.779 E21.59849
G1 X85.036 Y125.422 E21.9097
G1 X84.999 Y122.816 E21.99639
G1 X84.89 Y120.25 E22.08181
G1 X84.712 Y117.743 E22.1654
G1 X84.461 Y115.202 E22.25033
G1 X84.14 Y112.695 E22.33439
G1 X83.746 Y110.19 E22.41873
G1 X83.282 Y107.693 E22.50321
G1 X83.088 Y106.79 E22.53392
G1 X82.879 Y105.751 E22.56917
G1 X82.741 Y104.859 E22.5992
G1 X82.683 Y104.027 E22.62694
G1 X82.674 Y103.707 E22.63758
G1 X82.67 Y103.42 E22.64713
G1 X82.671 Y99.286 E22.78463
G1 X82.68 Y98.621 E22.80675
G1 X82.732 Y97.719 E22.8368
G1 X82.864 Y96.826 E22.86682
G1 X83.074 Y95.948 E22.89685
G1 X83.361 Y95.091 E22.92691
G1 X83.723 Y94.264 E22.95693
G1 X84.156 Y93.472 E22.98695
G1 X84.658 Y92.721 E23.017
G1 X85.225 Y92.017 E23.04706
G1 X85.851 Y91.367 E23.07708
G1 F2700 E18.07708
G0 F6000 X92.209 Y103.907
G0 X92.616 Y104.314
G0 X99.036 Y107.885
G0 X99.036 Y108.35
G1 F2700 E23.07708
G1 F1200 X108.334 Y108.35 E23.38633
G1 X108.884 Y108.31 E23.40467
G1 X109.422 Y108.191 E23.423
G1 X109.937 Y107.995 E23.44133
G1 X110.418 Y107.727 E23.45964
G1 X111.021 Y107.237 E23.48548
G1 X111.607 Y106.651 E23.51305
G1 X111.967 Y106.234 E23.53137
G1 X112.264 Y105.77 E23.54969
G1 X112.49 Y105.267 E23.56803
G1 X112.641 Y104.737 E23.58636
G1 X112.72 Y103.964 E23.61221
G1 X112.72 Y102.55 E23.65924
G1 X132.635 Y102.55 E24.32161
G1 X132.555 Y102.729 E24.32813
G1 X132.404 Y103.259 E24.34646
G1 X132.325 Y104.032 E24.37231
G1 X132.326 Y132.095 E25.30569
G1 X109.238 Y132.098 E26.0736
G1 X99.036 Y132.097 E26.41292
G1 X99.036 Y108.35 E27.20275
G0 F6000 X98.636 Y107.95
G1 F1200 X108.334 Y107.95 E27.5253
G1 X108.854 Y107.91 E27.54265
G1 X109.361 Y107.791 E27.55997
G1 X109.844 Y107.596 E27.57729
G1 X110.292 Y107.33 E27.59462
G1 X110.738 Y106.954 E27.61403
G1 X111.324 Y106.368 E27.64159
G1 X111.663 Y105.972 E27.65893
G1 X111.938 Y105.53 E27.67624
G1 X112.142 Y105.05 E27.69359
G1 X112.27 Y104.545 E27.71092
G1 X112.32 Y103.964 E27.73031
G1 X112.32 Y102.15 E27.79065
G1 X133.304 Y102.15 E28.48858
G1 X133.107 Y102.466 E28.50096
G1 X132.903 Y102.946 E28.51831
G1 X132.775 Y103.451 E28.53564
G1 X132.725 Y104.032 E28.55503
G1 X132.726 Y132.52 E29.50255
G1 X132.388 Y132.495 E29.51382
G1 X109.238 Y132.498 E30.28379
G1 X98.636 Y132.497 E30.63641
G1 X98.636 Y107.95 E31.45285
G0 F6000 X98.236 Y107.55
G1 F1200 X108.334 Y107.55 E31.78871
G1 X108.822 Y107.51 E31.805
G1 X109.297 Y107.391 E31.82128
G1 X109.746 Y107.197 E31.83755
G1 X110.158 Y106.932 E31.85385
G1 X110.455 Y106.671 E31.867
G1 X111.041 Y106.085 E31.89456
G1 X111.358 Y105.712 E31.91084
G1 X111.61 Y105.292 E31.92713
G1 X111.79 Y104.837 E31.94341
