;FLAVOR:Marlin
;TIME:15193
;Filament used: 10.684m
;Layer height: 0.2
;MINX:74.875
;MINY:70.966
;MINZ:0.2
;MAXX:160.125
;MAXY:164.541
;MAXZ:46.6
;Generated with Cura_SteamEngine 4.8.0
M140 S60
M105
M190 S60
M104 S200
M105
M109 S200
M82 ;absolute extrusion mode
; Ender 3 Custom Start G-code
G92 E0 ; Reset Extruder
G28 ; Home all axes
G1 Z2.0 F3000 ; Move Z Axis up little to prevent scratching of Heat Bed
G1 X0.1 Y20 Z0.3 F5000.0 ; Move to start position
G1 X0.1 Y200.0 Z0.3 F1500.0 E15 ; Draw the first line
G1 X0.4 Y200.0 Z0.3 F5000.0 ; Move to side a little
G1 X0.4 Y20 Z0.3 F1500.0 E30 ; Draw the second line
G92 E0 ; Reset Extruder
G1 Z2.0 F3000 ; Move Z Axis up little to prevent scratching of Heat Bed
G1 X5 Y20 Z0.3 F5000.0 ; Move over to prevent blob squish
G92 E0
G92 E0
G1 F2700 E-5
;LAYER_COUNT:233
;LAYER:0
M107
G0 F6000 X108.607 Y76.314 Z0.2
;TYPE:SKIRT
G1 F2700 E0
G1 F1200 X109.178 Y75.57 E0.03119
G1 X109.809 Y74.876 E0.06239
G1 X110.498 Y74.24 E0.09358
G1 X111.238 Y73.664 E0.12477
G1 X112.025 Y73.153 E0.15598
G1 X112.852 Y72.711 E0.18716
G1 X113.714 Y72.341 E0.21836
G1 X114.604 Y72.046 E0.24955
G1 X115.336 Y71.865 E0.27463
G1 X115.861 Y71.755 E0.29247
G1 X116.803 Y71.571 E0.32439
G1 X117.255 Y71.49 E0.33967
G1 X117.847 Y71.402 E0.35957
G1 X118.805 Y71.287 E0.39166
G1 X119.521 Y71.207 E0.41563
G1 X120.133 Y71.156 E0.43605
G1 X121.754 Y71.066 E0.49005
G1 X121.954 Y71.057 E0.49671
G1 X122.84 Y71.025 E0.5262
G1 X123.1 Y71.019 E0.53485
G1 X123.517 Y71.014 E0.54872
G1 X125.427 Y70.977 E0.61226
G1 X126.124 Y70.975 E0.63544
G1 X126.932 Y70.966 E0.66231
G1 X127.094 Y70.971 E0.66771
G1 X129.695 Y70.972 E0.75421
G1 X130.232 Y70.98 E0.77208
G1 X130.583 Y70.98 E0.78375
G1 X130.911 Y70.985 E0.79466
G1 X131.809 Y71.012 E0.82454
G1 X134.439 Y71.053 E0.91203
G1 X137.107 Y71.016 E1.00077
G1 X138.085 Y70.989 E1.03332
G1 X139.023 Y71.003 E1.06452
G1 X139.956 Y71.097 E1.09571
G1 X141.233 Y71.358 E1.13906
G1 X141.551 Y71.443 E1.15001
G1 X142.445 Y71.724 E1.18117
G1 X143.313 Y72.079 E1.21237
G1 X144.128 Y72.497 E1.24283
G1 X144.492 Y72.703 E1.25674
G1 X145.288 Y73.199 E1.28793
G1 X145.814 Y73.583 E1.3096
G1 X146.533 Y74.185 E1.34078
G1 X147.198 Y74.846 E1.37197
G1 X147.804 Y75.562 E1.40317
G1 X148.348 Y76.326 E1.43436
G1 X148.824 Y77.134 E1.46555
G1 X149.37 Y78.325 E1.50913
G1 X149.602 Y78.922 E1.53043
G1 X149.735 Y79.281 E1.54317
G1 X149.824 Y79.536 E1.55215
G1 X150.095 Y80.434 E1.58335
G1 X150.335 Y81.66 E1.6249
G1 X150.381 Y81.994 E1.63611
G1 X150.482 Y83.311 E1.68005
G1 X150.498 Y84.332 E1.71401
G1 X150.498 Y96.363 E2.11416
G1 X150.535 Y98.972 E2.20095
G1 X150.642 Y101.494 E2.2849
G1 X150.819 Y103.988 E2.36806
G1 X151.067 Y106.486 E2.45156
G1 X151.385 Y108.975 E2.53501
G1 X151.779 Y111.484 E2.61948
G1 X152.238 Y113.95 E2.70291
G1 X152.765 Y116.401 E2.7863
G1 X153.368 Y118.861 E2.87054
G1 X154.038 Y121.295 E2.95451
G1 X154.766 Y123.674 E3.03725
G1 X155.577 Y126.077 E3.12161
G1 X156.451 Y128.447 E3.20562
G1 X157.387 Y130.78 E3.28923
G1 X158.385 Y133.072 E3.37238
G1 X158.615 Y133.567 E3.39053
G1 X159.136 Y134.718 E3.43255
G1 X159.486 Y135.588 E3.46374
G1 X159.761 Y136.485 E3.49495
G1 X159.958 Y137.402 E3.52614
G1 X160.076 Y138.332 E3.55732
G1 X160.11 Y138.917 E3.57681
G1 X160.12 Y139.243 E3.58766
G1 X160.125 Y139.58 E3.59887
G1 X160.124 Y143.677 E3.73514
G1 X160.114 Y144.398 E3.75912
G1 X160.061 Y145.334 E3.7903
G1 X159.928 Y146.262 E3.82148
G1 X159.717 Y147.176 E3.85268
G1 X159.429 Y148.069 E3.88389
G1 X159.066 Y148.933 E3.91506
G1 X158.63 Y149.764 E3.94627
G1 X158.126 Y150.554 E3.97744
G1 X157.555 Y151.299 E4.00866
G1 X156.924 Y151.992 E4.03983
G1 X156.503 Y152.395 E4.05921
G1 X155.764 Y153.065 E4.09239
G1 X153.867 Y154.833 E4.17864
G1 X152.083 Y156.594 E4.26201
G1 X150.323 Y158.432 E4.34665
G1 X148.865 Y160.035 E4.41872
G1 X148.142 Y160.848 E4.45491
G1 X147.49 Y161.522 E4.4861
G1 X146.782 Y162.138 E4.51731
G1 X146.025 Y162.691 E4.54849
G1 X145.223 Y163.178 E4.5797
G1 X144.383 Y163.595 E4.61089
G1 X143.511 Y163.939 E4.64207
G1 X142.612 Y164.207 E4.67327
G1 X141.693 Y164.397 E4.70449
G1 X140.762 Y164.509 E4.73567
G1 X139.885 Y164.541 E4.76486
G1 X139.128 Y164.538 E4.79004
G1 X136.901 Y164.504 E4.86412
G1 X135.924 Y164.5 E4.89662
G1 X96.337 Y164.5 E6.21328
G1 X95.478 Y164.489 E6.24186
G1 X94.542 Y164.436 E6.27304
G1 X93.614 Y164.303 E6.30422
G1 X92.7 Y164.091 E6.33543
G1 X91.807 Y163.803 E6.36663
G1 X90.943 Y163.439 E6.39782
G1 X90.112 Y163.003 E6.42903
G1 X89.322 Y162.498 E6.46021
G1 X88.316 Y161.702 E6.50288
G1 X88.27 Y161.661 E6.50493
G1 X87.681 Y161.095 E6.5321
G1 X87.305 Y160.705 E6.55012
G1 X85.869 Y159.186 E6.61964
G1 X84.094 Y157.412 E6.70311
G1 X82.263 Y155.682 E6.78689
G1 X80.356 Y153.98 E6.87191
G1 X78.727 Y152.595 E6.94302
G1 X78.648 Y152.526 E6.94651
G1 X77.968 Y151.879 E6.97773
G1 X77.347 Y151.177 E7.0089
G1 X76.787 Y150.425 E7.04009
G1 X76.293 Y149.627 E7.07131
G1 X75.869 Y148.791 E7.10248
G1 X75.518 Y147.921 E7.13368
G1 X75.242 Y147.025 E7.16487
G1 X75.044 Y146.108 E7.19607
G1 X74.924 Y145.178 E7.22726
G1 X74.888 Y144.549 E7.24821
G1 X74.879 Y144.228 E7.25889
G1 X74.875 Y143.92 E7.26914
G1 X74.876 Y139.801 E7.40614
G1 X74.886 Y139.097 E7.42956
G1 X74.939 Y138.16 E7.46077
G1 X75.072 Y137.232 E7.49195
G1 X75.284 Y136.318 E7.52316
G1 X75.572 Y135.426 E7.55433
G1 X75.936 Y134.561 E7.58555
G1 X76.372 Y133.731 E7.61673
G1 X76.858 Y132.968 E7.64682
G1 X77.58 Y131.933 E7.68879
G1 X77.84 Y131.57 E7.70364
G1 X79.261 Y129.466 E7.78809
G1 X80.623 Y127.317 E7.87271
G1 X81.897 Y125.178 E7.95551
G1 X83.128 Y122.97 E8.0396
G1 X84.273 Y120.774 E8.12197
G1 X85.103 Y119.038 E8.18597
G1 X85.72 Y117.779 E8.2326
G1 X86.169 Y116.955 E8.26381
G1 X86.851 Y115.95 E8.30421
G1 X87.686 Y114.855 E8.35001
G1 X87.761 Y114.747 E8.35438
G1 X88.02 Y114.414 E8.36841
G1 X89.526 Y112.359 E8.45315
G1 X90.938 Y110.313 E8.53583
G1 X92.317 Y108.189 E8.62006
G1 X93.608 Y106.069 E8.70262
G1 X94.875 Y103.854 E8.78749
G1 X96.065 Y101.626 E8.8715
G1 X97.174 Y99.403 E8.95413
G1 X98.242 Y97.102 E9.0385
G1 X99.239 Y94.782 E9.12249
G1 X100.167 Y92.444 E9.20615
G1 X100.888 Y90.485 E9.27558
G1 X101.25 Y89.619 E9.3068
G1 X101.771 Y88.637 E9.34377
G1 X101.926 Y88.382 E9.3537
G1 X103.186 Y86.346 E9.43333
G1 X104.46 Y84.148 E9.51783
G1 X105.646 Y81.965 E9.60046
G1 X107.372 Y78.5 E9.72922
G1 X107.525 Y78.176 E9.74113
G1 X107.954 Y77.359 E9.77183
G1 X108.102 Y77.104 E9.78163
G1 X108.607 Y76.314 E9.81282
G0 F6000 X108.945 Y76.53
G1 F1200 X109.506 Y75.8 E9.84344
G1 X110.129 Y75.122 E9.87406
G1 X110.808 Y74.501 E9.90467
G1 X111.539 Y73.941 E9.9353
G1 X112.316 Y73.446 E9.96594
G1 X113.132 Y73.021 E9.99654
G1 X113.983 Y72.668 E10.02718
G1 X114.86 Y72.39 E10.05778
G1 X115.419 Y72.256 E10.0769
G1 X115.938 Y72.148 E10.09453
G1 X117.075 Y71.927 E10.13306
G1 X117.325 Y71.883 E10.1415
G1 X117.895 Y71.799 E10.16066
G1 X118.849 Y71.685 E10.19262
G1 X119.565 Y71.605 E10.21658
G1 X120.155 Y71.555 E10.23627
G1 X121.776 Y71.466 E10.29027
G1 X121.968 Y71.457 E10.29666
G1 X122.854 Y71.425 E10.32615
G1 X123.105 Y71.419 E10.3345
G1 X123.53 Y71.414 E10.34864
G1 X125.435 Y71.377 E10.41201
G1 X126.128 Y71.375 E10.43506
G1 X126.936 Y71.366 E10.46194
G1 X127.095 Y71.371 E10.46723
G1 X129.689 Y71.372 E10.5535
G1 X130.226 Y71.38 E10.57137
G1 X130.583 Y71.38 E10.58324
G1 X130.899 Y71.385 E10.59375
G1 X131.79 Y71.412 E10.6234
G1 X134.439 Y71.453 E10.71152
G1 X137.123 Y71.416 E10.8008
G1 X138.096 Y71.389 E10.83317
G1 X139.017 Y71.403 E10.86381
G1 X139.932 Y71.498 E10.8944
G1 X141.129 Y71.745 E10.93505
G1 X141.447 Y71.83 E10.946
G1 X142.325 Y72.106 E10.97661
G1 X143.176 Y72.457 E11.00723
G1 X143.931 Y72.845 E11.03546
G1 X144.295 Y73.051 E11.04937
G1 X145.076 Y73.539 E11.08
G1 X145.57 Y73.9 E11.10035
G1 X146.276 Y74.492 E11.131
G1 X146.927 Y75.142 E11.1616
G1 X147.52 Y75.847 E11.19224
G1 X148.049 Y76.601 E11.22287
G1 X148.51 Y77.397 E11.25347
G1 X148.997 Y78.469 E11.29263
G1 X149.229 Y79.066 E11.31393
G1 X149.357 Y79.413 E11.32623
G1 X149.446 Y79.668 E11.33522
G1 X149.711 Y80.55 E11.36585
G1 X149.939 Y81.715 E11.40533
G1 X149.985 Y82.049 E11.41654
G1 X150.083 Y83.318 E11.45888
G1 X150.097 Y84.155 E11.48672
G1 X150.098 Y96.363 E11.89276
G1 X150.135 Y98.993 E11.98024
G1 X150.242 Y101.503 E12.0638
G1 X150.42 Y104.019 E12.14769
G1 X150.67 Y106.543 E12.23205
G1 X150.991 Y109.051 E12.31615
G1 X151.378 Y111.513 E12.39904
G1 X151.847 Y114.035 E12.48436
G1 X152.379 Y116.509 E12.56853
G1 X152.979 Y118.957 E12.65236
G1 X153.646 Y121.38 E12.73594
G1 X154.391 Y123.814 E12.82061
G1 X155.209 Y126.239 E12.90573
G1 X156.064 Y128.556 E12.98787
G1 X157.026 Y130.953 E13.07378
G1 X158.014 Y133.223 E13.15612
G1 X158.251 Y133.732 E13.17479
G1 X158.772 Y134.883 E13.21681
G1 X159.115 Y135.737 E13.24742
G1 X159.382 Y136.618 E13.27804
G1 X159.572 Y137.519 E13.30867
G1 X159.683 Y138.433 E13.33929
G1 X159.71 Y138.929 E13.35581
G1 X159.72 Y139.255 E13.36666
G1 X159.725 Y139.58 E13.37747
G1 X159.724 Y143.671 E13.51354
G1 X159.714 Y144.392 E13.53752
G1 X159.661 Y145.311 E13.56814
G1 X159.529 Y146.222 E13.59876
G1 X159.318 Y147.118 E13.62937
G1 X159.03 Y147.993 E13.66001
G1 X158.668 Y148.839 E13.69062
G1 X158.233 Y149.651 E13.72125
G1 X157.73 Y150.422 E13.75187
G1 X157.161 Y151.146 E13.7825
G1 X156.234 Y152.099 E13.82672
G1 X155.467 Y152.794 E13.86114
G1 X153.596 Y154.539 E13.94624
G1 X151.796 Y156.316 E14.03037
G1 X150.04 Y158.149 E14.11479
G1 X148.593 Y159.74 E14.18632
G1 X147.843 Y160.583 E14.22385
G1 X147.202 Y161.244 E14.25448
G1 X146.506 Y161.846 E14.28508
G1 X145.761 Y162.387 E14.31571
G1 X144.971 Y162.86 E14.34633
G1 X144.143 Y163.263 E14.37696
G1 X143.284 Y163.593 E14.40757
G1 X142.399 Y163.847 E14.43819
G1 X141.495 Y164.023 E14.46882
G1 X140.58 Y164.12 E14.49942
G1 X139.886 Y164.141 E14.52252
G1 X139.135 Y164.138 E14.5475
G1 X136.91 Y164.104 E14.62151
G1 X135.925 Y164.1 E14.65427
G1 X96.337 Y164.1 E15.97097
G1 X95.484 Y164.089 E15.99935
G1 X94.565 Y164.036 E16.02996
G1 X93.654 Y163.903 E16.06058
G1 X92.758 Y163.692 E16.0912
G1 X91.883 Y163.404 E16.12184
G1 X91.037 Y163.041 E16.15246
G1 X90.226 Y162.606 E16.18307
G1 X89.455 Y162.102 E16.2137
G1 X88.582 Y161.403 E16.2509
G1 X88.536 Y161.362 E16.25295
G1 X87.968 Y160.817 E16.27913
G1 X87.595 Y160.43 E16.29701
G1 X86.142 Y158.893 E16.36736
G1 X84.386 Y157.138 E16.44993
G1 X82.521 Y155.375 E16.53529
G1 X80.621 Y153.68 E16.61997
G1 X78.99 Y152.294 E16.69116
G1 X78.911 Y152.225 E16.69465
G1 X78.245 Y151.589 E16.72528
G1 X77.636 Y150.899 E16.75589
G1 X77.089 Y150.158 E16.78652
G1 X76.609 Y149.372 E16.81716
G1 X76.199 Y148.548 E16.84777
G1 X75.861 Y147.692 E16.87838
G1 X75.6 Y146.809 E16.909
G1 X75.416 Y145.907 E16.93962
G1 X75.288 Y144.538 E16.98535
G1 X75.279 Y144.217 E16.99603
G1 X75.275 Y143.92 E17.00591
G1 X75.276 Y139.806 E17.14274
G1 X75.286 Y139.102 E17.16616
G1 X75.339 Y138.183 E17.19678
G1 X75.472 Y137.272 E17.2274
G1 X75.683 Y136.376 E17.25802
G1 X75.971 Y135.502 E17.28862
G1 X76.334 Y134.656 E17.31924
G1 X76.769 Y133.844 E17.34988
G1 X77.186 Y133.196 E17.37551
G1 X77.905 Y132.166 E17.41729
G1 X78.164 Y131.805 E17.43207
G1 X79.603 Y129.673 E17.51762
G1 X80.955 Y127.541 E17.60158
G1 X82.262 Y125.346 E17.68655
G1 X83.459 Y123.199 E17.76831
G1 X84.642 Y120.93 E17.85342
G1 X85.463 Y119.214 E17.91669
G1 X86.08 Y117.955 E17.96332
G1 X86.52 Y117.147 E17.99392
G1 X87.169 Y116.193 E18.0323
G1 X87.961 Y115.154 E18.07575
G1 X88.077 Y114.992 E18.08238
G1 X88.343 Y114.65 E18.09679
G1 X89.846 Y112.6 E18.18133
G1 X91.27 Y110.536 E18.26474
G1 X92.651 Y108.409 E18.34908
G1 X93.963 Y106.254 E18.433
G1 X95.232 Y104.036 E18.51799
G1 X96.411 Y101.829 E18.60121
G1 X97.544 Y99.557 E18.68565
G1 X98.609 Y97.263 E18.76978
G1 X99.602 Y94.951 E18.85347
G1 X100.548 Y92.568 E18.93874
G1 X101.264 Y90.623 E19.00768
G1 X101.619 Y89.774 E19.03828
G1 X102.115 Y88.843 E19.07337
G1 X102.266 Y88.592 E19.08311
G1 X103.538 Y86.535 E19.16355
G1 X104.809 Y84.344 E19.2478
G1 X105.995 Y82.162 E19.3304
G1 X107.734 Y78.67 E19.46015
G1 X107.887 Y78.347 E19.47204
G1 X108.3 Y77.56 E19.5016
G1 X108.448 Y77.305 E19.5114
G1 X108.945 Y76.53 E19.54203
G0 F6000 X109.282 Y76.746
G1 F1200 X109.834 Y76.031 E19.57207
G1 X110.448 Y75.369 E19.6021
G1 X111.118 Y74.763 E19.63215
G1 X111.839 Y74.22 E19.66217
G1 X112.605 Y73.742 E19.6922
G1 X113.411 Y73.333 E19.72226
G1 X114.249 Y72.998 E19.75228
G1 X115.502 Y72.647 E19.79556
G1 X116.015 Y72.54 E19.81299
G1 X117.144 Y72.321 E19.85124
G1 X117.394 Y72.277 E19.85968
G1 X117.943 Y72.196 E19.87814
G1 X118.893 Y72.082 E19.90996
G1 X119.609 Y72.002 E19.93392
G1 X120.177 Y71.955 E19.95288
G1 X121.797 Y71.865 E20.00684
G1 X122.869 Y71.825 E20.04252
G1 X123.11 Y71.819 E20.05054
G1 X123.541 Y71.814 E20.06488
G1 X125.442 Y71.777 E20.12812
G1 X125.639 Y71.775 E20.13467
G1 X126.132 Y71.775 E20.15107
G1 X126.94 Y71.766 E20.17794
G1 X127.09 Y71.771 E20.18293
G1 X129.683 Y71.772 E20.26918
G1 X130.22 Y71.78 E20.28704
G1 X130.583 Y71.78 E20.29911
G1 X130.887 Y71.785 E20.30923
G1 X131.771 Y71.811 E20.33864
G1 X134.438 Y71.853 E20.42736
G1 X137.14 Y71.816 E20.51723
G1 X138.107 Y71.789 E20.54941
G1 X139.01 Y71.804 E20.57945
G1 X139.908 Y71.898 E20.60948
G1 X141.026 Y72.131 E20.64746
G1 X141.344 Y72.216 E20.65841
G1 X142.205 Y72.488 E20.68844
G1 X143.039 Y72.834 E20.71847
G1 X143.734 Y73.193 E20.74449
G1 X144.098 Y73.399 E20.7584
G1 X144.863 Y73.878 E20.78842
G1 X145.327 Y74.217 E20.80753
G1 X146.018 Y74.798 E20.83756
G1 X146.656 Y75.438 E20.86762
G1 X147.234 Y76.132 E20.89766
G1 X147.748 Y76.874 E20.92768
G1 X148.195 Y77.659 E20.95773
G1 X148.624 Y78.614 E20.99255
G1 X148.856 Y79.211 E21.01385
G1 X148.979 Y79.545 E21.02569
G1 X149.068 Y79.8 E21.03467
G1 X149.328 Y80.665 E21.06471
G1 X149.543 Y81.769 E21.10212
G1 X149.589 Y82.103 E21.11334
G1 X149.683 Y83.324 E21.15407
G1 X149.697 Y84.161 E21.18191
G1 X149.698 Y96.363 E21.58775
G1 X149.735 Y98.981 E21.67483
G1 X149.844 Y101.547 E21.76025
G1 X150.022 Y104.054 E21.84385
G1 X150.27 Y106.563 E21.9277
G1 X150.598 Y109.126 E22.01365
G1 X150.989 Y111.611 E22.09731
G1 X151.45 Y114.094 E22.18131
G1 X151.984 Y116.575 E22.26572
G1 X152.591 Y119.053 E22.35057
G1 X153.276 Y121.54 E22.43637
G1 X154.002 Y123.912 E22.51888
G1 X154.827 Y126.357 E22.6047
G1 X155.705 Y128.737 E22.68908
G1 X156.646 Y131.082 E22.77312
G1 X157.661 Y133.416 E22.85777
G1 X157.886 Y133.897 E22.87543
G1 X158.407 Y135.048 E22.91745
G1 X158.743 Y135.886 E22.94748
G1 X159.003 Y136.751 E22.97752
G1 X159.186 Y137.636 E23.00758
G1 X159.31 Y138.941 E23.05118
G1 X159.32 Y139.267 E23.06203
G1 X159.325 Y139.58 E23.07244
G1 X159.324 Y143.665 E23.20831
G1 X159.314 Y144.386 E23.23229
G1 X159.262 Y145.288 E23.26234
G1 X159.129 Y146.181 E23.29237
G1 X158.919 Y147.06 E23.32243
G1 X158.632 Y147.916 E23.35246
G1 X158.27 Y148.743 E23.38248
G1 X157.836 Y149.535 E23.41252
G1 X157.334 Y150.286 E23.44257
G1 X156.767 Y150.989 E23.4726
G1 X155.965 Y151.802 E23.51059
G1 X155.245 Y152.455 E23.54292
G1 X153.308 Y154.261 E23.631
G1 X151.526 Y156.019 E23.71426
G1 X149.738 Y157.886 E23.80024
G1 X148.282 Y159.486 E23.87219
G1 X147.544 Y160.317 E23.90916
G1 X146.915 Y160.965 E23.93919
G1 X146.231 Y161.554 E23.96921
G1 X145.497 Y162.081 E23.99927
G1 X144.72 Y162.541 E24.0293
G1 X143.905 Y162.93 E24.05934
G1 X143.059 Y163.246 E24.08937
G1 X142.188 Y163.486 E24.11942
G1 X141.3 Y163.647 E24.14944
G1 X140.4 Y163.73 E24.1795
G1 X139.887 Y163.741 E24.19657
G1 X139.141 Y163.738 E24.22138
G1 X136.917 Y163.704 E24.29536
G1 X135.927 Y163.7 E24.32829
G1 X96.337 Y163.7 E25.64506
G1 X95.49 Y163.689 E25.67323
G1 X94.588 Y163.636 E25.70328
G1 X93.695 Y163.504 E25.73331
G1 X92.817 Y163.293 E25.76334
